static/images/platforms/python.svg

<svg xmlns="http://www.w3.org/2000/svg" viewBox="0 0 128 128"><linearGradient id="a" x1="70.252" x2="170.659" y1="1237.476" y2="1151.089" gradientTransform="matrix(.563 0 0 -.568 -29.215 716.817)" gradientUnits="userSpaceOnUse"><stop offset="0" stop-color="#5A9FD4"/><stop offset="1" stop-color="#306998"/></linearGradient><path fill="url(#a)" d="M63.391 10.988c-4.222.02-8.252.379-11.8 1.007-10.45 1.846-12.346 5.71-12.346 12.837v9.411h24.693v3.137H29.977c-7.176 0-13.46 4.313-15.426 12.521-2.268 9.405-2.368 15.275 0 25.096 1.755 7.311 5.947 12.519 13.124 12.519h8.491V76.234c0-8.151 7.051-15.34 15.426-15.34h24.665c6.866 0 12.346-5.654 12.346-12.548V24.833c0-6.693-5.646-11.72-12.346-12.837-4.244-.706-8.645-1.027-12.866-1.008Zm-13.354 7.569c2.55 0 4.634 2.117 4.634 4.721 0 2.593-2.083 4.69-4.634 4.69-2.56 0-4.633-2.097-4.633-4.69-.001-2.604 2.073-4.721 4.633-4.721Z"/><linearGradient id="b" x1="209.474" x2="173.62" y1="1098.811" y2="1149.537" gradientTransform="matrix(.563 0 0 -.568 -29.215 716.817)" gradientUnits="userSpaceOnUse"><stop offset="0" stop-color="#FFD43B"/><stop offset="1" stop-color="#FFE873"/></linearGradient><path fill="url(#b)" d="M91.682 37.38v10.966c0 8.5-7.208 15.655-15.426 15.655H51.591c-6.756 0-12.346 5.783-12.346 12.549v23.515c0 6.691 5.818 10.628 12.346 12.547 7.816 2.297 15.312 2.713 24.665 0 6.216-1.801 12.346-5.423 12.346-12.547v-9.412H63.938v-3.138h37.012c7.176 0 9.852-5.005 12.348-12.519 2.578-7.735 2.467-15.174 0-25.096-1.774-7.145-5.161-12.521-12.348-12.521h-9.268ZM77.809 96.927c2.561 0 4.634 2.097 4.634 4.692 0 2.602-2.074 4.719-4.634 4.719-2.55 0-4.633-2.117-4.633-4.719 0-2.595 2.083-4.692 4.633-4.692Z"/></svg>

<?xml version="1.0" encoding="utf-8"?>
<svg viewBox="0 0 128 128" xmlns="http://www.w3.org/2000/svg">
  <linearGradient id="a" gradientUnits="userSpaceOnUse" x1="70.252" y1="1237.476" x2="170.659" y2="1151.089" gradientTransform="matrix(0.563, 0, 0, -0.568, -29.215, 716.817017)">
    <stop offset="0" stop-color="#5A9FD4"/>
    <stop offset="1" stop-color="#306998"/>
  </linearGradient>
  <path fill="url(#a)" d="M 63.391 10.988 C 59.169 11.008 55.139 11.367 51.591 11.995 C 41.141 13.841 39.245 17.705 39.245 24.832 L 39.245 34.243 L 63.938 34.243 L 63.938 37.38 L 29.977 37.38 C 22.801 37.38 16.517 41.693 14.551 49.901 C 12.283 59.306 12.183 65.176 14.551 74.997 C 16.306 82.308 20.498 87.516 27.675 87.516 L 36.166 87.516 L 36.166 76.234 C 36.166 68.083 43.217 60.894 51.592 60.894 L 76.257 60.894 C 83.123 60.894 88.603 55.24 88.603 48.346 L 88.603 24.833 C 88.603 18.14 82.957 13.113 76.257 11.996 C 72.013 11.29 67.612 10.969 63.391 10.988 Z M 50.037 18.557 C 52.587 18.557 54.671 20.674 54.671 23.278 C 54.671 25.871 52.588 27.968 50.037 27.968 C 47.477 27.968 45.404 25.871 45.404 23.278 C 45.403 20.674 47.477 18.557 50.037 18.557 Z"/>
  <linearGradient id="b" gradientUnits="userSpaceOnUse" x1="209.474" y1="1098.811" x2="173.62" y2="1149.537" gradientTransform="matrix(0.563, 0, 0, -0.568, -29.215, 716.817017)">
    <stop offset="0" stop-color="#FFD43B"/>
    <stop offset="1" stop-color="#FFE873"/>
  </linearGradient>
  <path fill="url(#b)" d="M 91.682 37.38 L 91.682 48.346 C 91.682 56.846 84.474 64.001 76.256 64.001 L 51.591 64.001 C 44.835 64.001 39.245 69.784 39.245 76.55 L 39.245 100.065 C 39.245 106.756 45.063 110.693 51.591 112.612 C 59.407 114.909 66.903 115.325 76.256 112.612 C 82.472 110.811 88.602 107.189 88.602 100.065 L 88.602 90.653 L 63.938 90.653 L 63.938 87.515 L 100.95 87.515 C 108.126 87.515 110.802 82.51 113.298 74.996 C 115.876 67.261 115.765 59.822 113.298 49.9 C 111.524 42.755 108.137 37.379 100.95 37.379 L 91.682 37.379 Z M 77.809 96.927 C 80.37 96.927 82.443 99.024 82.443 101.619 C 82.443 104.221 80.369 106.338 77.809 106.338 C 75.259 106.338 73.176 104.221 73.176 101.619 C 73.176 99.024 75.259 96.927 77.809 96.927 Z"/>
</svg>
